X: 273
T: The Boys Of Malin
R: reel
M: 4/4
L: 1/8
K:Amaj
|:"A"ABcd eAce|"D"fedf "A"edcB|ABcd eAce|1 "D"fdBc d2cB:|2 fdBc defg||
|"A" a~A3 cAce|a2ag "D"fefg|"A"a~A3  cAce|"D"dcBc defg|
"A"a~A3  cAce|a2ag "D"fefg|"A" afge "D"fdec|"Bm"dcBc "D"d2cB|
|:"A"Aece Aece|Aece "D"d2cB|"A"Aece Aece|"D"fdBc d2cB:|


